X:1
T:Title
%%score [ ( 1 2 ) ( 3 4 ) ]
L:1/8
Q:1/4=120
M:2/4
K:D
V:1 treble nm="Midi_74" snm=" "
V:2 treble 
V:3 bass nm="Midi_74"
V:4 bass 
V:1
"^Isaac Watts" d2 c>B | A3 G |"^16. Joy to the world!" F2 E2 | D3 A | %4
w: Joy to the|world! the|Lord is|come: let|
w: ||||
w: He rules the|world with|truth and|grace, and|
 B3"^Origins unknown,\narr. Lowell Mason" B | c3 c | d3 d | dc BA | (A>G F)d | dc BA | (A>G F)F | %11
w: earth re-|ceive her|King; let|ev * 'ry *|heart * * pre-|pare * him *|room, * * and|
w: |||||||
w: makes the|na- tions|prove the|glo * ries *|of * * his|right * eous *|ness, * * and|
 FF FF/G/ | A3 G/F/ | EE EE/F/ | G3 F/E/ | (D d2) B | (A>G F)G | F2 E2 | D4 |] %19
w: heav'n and na- ture *|sing, and *|heav'n and na- ture *|sing, and *|heav'n, * and|heav'n * * and|na- ture|sing.|
w: ||||||||
w: won- ders of his *|love, and *|won- ders of his *|love, and *|won * ders,|won * * ders|of his|love.|
V:2
 F2 A>G | F3 E | D2 C2 | D3 D | G3 G | A3 E | F3 F | FA GF | (F>E D)F | FA GF | (F>E D)D | %11
w: |||||||||||
w: Joy to the|world! the|Sa- viour|reigns; let|us our|songs em-|ploy, while|fields * and *|floods, * * rocks,|hills, * and *|plains, * * re-|
 DD DD/E/ | F3 E/D/ | CC CC/D/ | E3 D/C/ | (D F2) G | (F>E D)E | D2 C2 | D4 |] %19
w: ||||||||
w: peat the sound- ing *|joy, re *|peat the sound- ing *|joy, re *|peat, * re-|peat * * the|sound- ing|joy.|
V:3
 D2 D>D | D3 B, | A,3 G, | F,3 D | D3 E | E3 A, | A,3 A, | A,2 D2 | (D2 A,)A, | A,2 D2 | %10
w: ||||||||||
w: ||||||||||
w: ||||||||||
 (D2 A,) z | z2 z A, | A,A, A,A, | A,3 A, |"^This edition  Andrew Sims 2014" A,A, A,A, | %15
w: |and|heav'n and na- ture|sing, and|heav'n and na- ture|
w: |||||
w: |and|won- ders of his|love, and|won- ders of his|
 (F, A,2) D | D3 B, | A,2 A,G, | F,4 |] %19
w: sing, * *||||
w: ||||
w: love, * *||||
V:4
 D,2 D,>D, | D,3 G, | A,2 A,,2 | D,3 F, | G,3 E, | A,3 A,, | D,3 D, | D,2 D,2 | D,3 D, | D,2 D,2 | %10
w: ||||||||||
w: ||||||||||
 D,3 z | z2 z D, | D,D, D,D, | A,,3 A,, | A,,A,, A,,A,, | D,3 D, | D,3 G, | A,2 A,,2 | D,4 |] %19
w: |||||||||
w: |re-|peat the sound- ing|joy, re-|peat the sound- ing|joy, *||||

